assets/images/Location/bus.svg

<svg width="40" height="40" viewBox="0 0 40 40" fill="none" xmlns="http://www.w3.org/2000/svg">
<path d="M28.6208 3.32031C30.3445 3.32031 31.9088 4.01404 33.0499 5.13681C34.1627 6.23174 34.8732 7.73484 34.9359 9.40131L34.9395 9.5332L34.9405 13.6387C35.1286 13.6001 35.3109 13.6053 35.4604 13.6196C35.6725 13.6398 35.9458 13.6906 36.1862 13.8544C36.3454 13.9629 36.4866 14.1244 36.584 14.3582C36.6355 14.4853 36.6639 14.6202 36.6683 14.7566V14.8249L36.664 18.263C36.664 18.5679 36.5429 18.8603 36.3273 19.0759C36.0107 19.3927 35.5282 19.5054 35.0838 19.3295L35.0261 19.3049L34.9404 30.3302C34.9387 30.8331 34.8046 31.3267 34.5516 31.7612C34.2829 32.2228 33.8901 32.6005 33.4172 32.851L33.3215 32.8993L33.2098 35.4935C33.2128 35.8024 33.0915 36.0993 32.8733 36.3175C32.6888 36.5021 32.4479 36.6175 32.191 36.6467L32.1265 36.6522L30.3375 36.6541C30.0328 36.6541 29.7406 36.5329 29.5252 36.3175C29.3405 36.1328 29.2252 35.8917 29.196 35.6347L29.1905 35.5701L29.188 33.2058H10.8034V35.5046C10.8034 35.8095 10.6823 36.1019 10.4668 36.3175C10.2823 36.5021 10.0413 36.6175 9.78447 36.6467L9.71994 36.6522L7.93094 36.6541C7.62627 36.6541 7.33408 36.5329 7.11869 36.3175C6.93405 36.1328 6.81874 35.8917 6.78949 35.6347L6.78398 35.5701L6.78183 32.9486C5.83005 32.5201 5.13883 31.6025 5.07093 30.5098L5.0668 30.4208L5.06534 19.271C4.56935 19.5242 4.01999 19.4245 3.67153 19.0759C3.48691 18.8912 3.3716 18.6501 3.34234 18.3932L3.33683 18.3286L3.33496 14.8147C3.33496 14.524 3.44458 14.2439 3.64257 14.0309C3.91961 13.7328 4.3403 13.5974 4.75479 13.6963L4.81689 13.7129L5.06546 9.65948C5.06082 7.9283 5.7552 6.35669 6.88138 5.21135C7.97587 4.09825 9.47833 3.38754 11.1441 3.32484L11.2759 3.32124L28.6208 3.32031ZM32.6443 21.1366H7.36312V30.9069H32.6462L32.6443 21.1366ZM12.2383 24.0102C12.7935 24.0102 13.2961 24.2354 13.6599 24.5993C14.0238 24.9634 14.2489 25.4663 14.2489 26.0218C14.2489 26.5772 14.0238 27.0802 13.6599 27.4442C13.2961 27.8082 12.7935 28.0333 12.2383 28.0333C11.683 28.0333 11.1804 27.8082 10.8166 27.4442C10.4527 27.0802 10.2276 26.5772 10.2276 26.0218C10.2276 25.4663 10.4527 24.9634 10.8166 24.5993C11.1804 24.2354 11.683 24.0102 12.2383 24.0102ZM27.7505 24.0102C28.3057 24.0102 28.8083 24.2354 29.1721 24.5993C29.5361 24.9634 29.7611 25.4663 29.7611 26.0218C29.7611 26.5772 29.536 27.0802 29.1721 27.4442C28.8083 27.8082 28.3057 28.0333 27.7505 28.0333C27.1953 28.0333 26.6926 27.8082 26.3288 27.4442C25.9649 27.0802 25.7398 26.5772 25.7398 26.0218C25.7398 25.4663 25.9649 24.9634 26.3288 24.5993C26.6926 24.2354 27.1952 24.0102 27.7505 24.0102ZM18.854 10.7917H7.36312V18.8378H18.854V10.7917ZM32.6427 10.7917H21.1517V18.8378H32.6427V10.7917ZM28.6208 5.61918H11.385L11.2898 5.6203C9.58125 5.66049 8.13642 6.78127 7.50197 8.49278H32.4633L32.4357 8.40613C31.9042 6.79624 30.4023 5.61918 28.6208 5.61918Z" fill="#010107"/>
</svg>

<svg xmlns="http://www.w3.org/2000/svg" width="40" height="40" fill="none" viewBox="0 0 40 40"><path fill="#010107" d="M28.62 3.32c1.724 0 3.289.694 4.43 1.817A6.305 6.305 0 0 1 34.936 9.4l.004.132v4.106c.189-.039.37-.034.52-.02.212.02.486.072.726.235a1.16 1.16 0 0 1 .482.902v.069l-.004 3.438a1.15 1.15 0 0 1-1.58 1.066l-.058-.024-.086 11.025a2.863 2.863 0 0 1-1.523 2.521l-.096.048-.111 2.594a1.15 1.15 0 0 1-1.019 1.154l-.065.005-1.788.002a1.149 1.149 0 0 1-1.142-1.02l-.006-.064-.002-2.364H10.803v2.299a1.15 1.15 0 0 1-1.019 1.142l-.064.005-1.79.002a1.149 1.149 0 0 1-1.14-1.02l-.006-.064-.002-2.621c-.952-.429-1.643-1.346-1.711-2.44l-.004-.088-.002-11.15c-.496.253-1.045.153-1.393-.195a1.15 1.15 0 0 1-.33-.683l-.005-.064-.002-3.514a1.151 1.151 0 0 1 1.42-1.119l.062.017.248-4.054A6.302 6.302 0 0 1 6.881 5.21a6.3 6.3 0 0 1 4.263-1.886l.132-.004H28.62zm4.024 17.817H7.364v9.77h25.282l-.002-9.77zM12.238 24.01a2 2 0 0 1 1.422.59c.364.363.589.866.589 1.422 0 .555-.225 1.058-.59 1.422a2.004 2.004 0 0 1-2.843 0 2.006 2.006 0 0 1-.588-1.422c0-.556.225-1.059.589-1.423a2.001 2.001 0 0 1 1.421-.589zm15.512 0a2 2 0 0 1 1.422.59 2.006 2.006 0 0 1 0 2.844c-.364.364-.866.59-1.422.59a2.004 2.004 0 0 1-1.421-.59 2.006 2.006 0 0 1-.59-1.422c0-.556.226-1.059.59-1.423a2.003 2.003 0 0 1 1.421-.589zm-8.896-13.218H7.364v8.046h11.49v-8.046zm13.789 0H21.152v8.046h11.49v-8.046zM28.62 5.619H11.385l-.095.001c-1.709.04-3.154 1.161-3.788 2.873h24.961l-.027-.087c-.532-1.61-2.034-2.787-3.815-2.787z"/></svg>
